X:1
T:Over the Waterfall
M:2/4
K:D
L:1/16
de | "D"f2a2 "A7"gfe2 | "D"d2B2 A2de | "D"f2a2 "A7"gfe2 | "D"d6 de \
| "D"f2a2 "A7"gfe2 | "D"d2B2 A3B | "C"=c3c B2A2 | "G"G6 :|
|: FG \
| "D"A2-A2 "G"B2-B2 | "D"ABAG F2FG | "D"A2d2 "A7"cdec | "D"d6 FG \
| "D"A2-A2 "G"B2-B2 | "D"ABAG F2FG | "A7"A2A2 GFE2 | "D"D6  |]
